X:9004
T:Infant Holy, Infant Lowly
M:3/4
L:1/8
Q:1/4=120
K:G
"G"DD G2 G2|"D"FG A2 A2|"G"Bc d2 "C"c2|"G"BA G4|DD G2 G2|"D"FG "D"A2 A2|"G"Bc d2 "C"c2|"G"BA G4|
"C"GF E2 E2|"D"AG F2 F2|"G"BA G2 G2|"C"cB "D7"A2 A2|"G"Bc d2 "C"c2|"G"BA G4|"G"Bc d2 "C"c2|"G"BA G4|]

